!!!!SEGMENT: pl-kk--kk-i-475--004_studzinski-karol--msza-3cia-credo.krn
!!!cenid: 18xx:1380
!!!COM: Studziński, Karol
!!!COM-rism: pe30040593
!!!CDT: 1828/01/24-1883/03/16
!!!CNT: Polish
!!!OTL: Msza 3cia – Credo
!!!PDT:
!!!AGN: Sacred; Mass
!!!SMS-siglum: PL-Kk
!!!SMS-shelfmark: Kk.I.475
!!!NIFC-rismID: 1001140246
!!!URL-scan: http://repozytorium.nifc.pl/skany/pl-kk-nut--i-475
!!!ONB-nifc: UWAGA: części Mszy: 1. Kyrie, 2. Gloria, 3. Graduale, 4. Credo, 5. Sanctus, 6. O salutaris, 7. Agnus Dei
!!!SMS-variant:
!!!SMS-altvar:
**kern	**kern	**text	**dynam	**kern	**text	**dynam	**kern	**text	**dynam
*part4	*part3	*part3	*part3	*part2	*part2	*part2	*part1	*part1	*part1
*staff4	*staff3	*staff3	*	*staff2	*staff2	*	*staff1	*staff1	*
*I"Basso	*I"Tenor	*	*	*I"Alt.	*	*	*I"Sopran.	*	*
*I'B.	*I'T	*	*	*I'A	*	*	*I'S	*	*
*clefF4	*clefG2	*	*	*clefG2	*	*	*clefG2	*	*
*k[b-e-]	*k[b-e-]	*	*	*k[b-e-]	*	*	*k[b-e-]	*	*
*M3/4	*M3/4	*	*	*M3/4	*	*	*M3/4	*	*
=1	=1	=1	=1	=1	=1	=1	=1	=1	=1
!	!	!	!	!	!	!	!LO:TX:b:t=40	!	!
!LO:TX:a:B:t=Allegro Moderato	!	!	!	!LO:TX:rj:a:B:t=Allegro Moderato	!	!	!LO:TX:rj:a:B:t=Allegro Moderato	!	!
!	!	!	!	!	!	!	!LO:TX:a:t=40	!	!
!LO:TX:t=P:problem:brak partii basso w źródle	!LO:TX:rj:a:B:t=Allo moderato	!	!	!LO:TX:b:t=40	!	!	!	!	!
2.ryy	4f/	Cre-	.	2.r	.	.	2.r	.	.
.	4f/	-do	.	.	.	.	.	.	.
.	4f/	in	.	.	.	.	.	.	.
=2	=2	=2	=2	=2	=2	=2	=2	=2	=2
2.ryy	2g/	u-	.	2.r	.	.	2.r	.	.
.	4g/	-num	.	.	.	.	.	.	.
=3	=3	=3	=3	=3	=3	=3	=3	=3	=3
2.ryy	(2b-\	De-	.	2.r	.	.	2.r	.	.
.	4cc\)	.	.	.	.	.	.	.	.
=4	=4	=4	=4	=4	=4	=4	=4	=4	=4
2.ryy	2.dd\	-um	.	2.r	.	.	2.r	.	.
!	!LO:LB:g=original	!	!	!	!	!	!	!	!
=5	=5	=5	=5	=5	=5	=5	=5	=5	=5
2.ryy	4dd\	Pa-	.	2.r	.	.	2.r	.	.
.	4dd\	-trem	.	.	.	.	.	.	.
.	4cc\	om-	.	.	.	.	.	.	.
=6	=6	=6	=6	=6	=6	=6	=6	=6	=6
2.ryy	2b-/	-ni-	.	2.r	.	.	2.r	.	.
.	4g/	-po-	.	.	.	.	.	.	.
=7	=7	=7	=7	=7	=7	=7	=7	=7	=7
2.ryy	2.f/	-ten-	.	2.r	.	.	2.r	.	.
=8	=8	=8	=8	=8	=8	=8	=8	=8	=8
2.ryy	4f/	-tem	.	2.r	.	.	2.r	.	.
.	4r	.	.	.	.	.	.	.	.
.	4f/	fac-	.	.	.	.	.	.	.
=9	=9	=9	=9	=9	=9	=9	=9	=9	=9
2.ryy	2f/	-to-	.	2.r	.	.	2.r	.	.
.	4f/	-rem	.	.	.	.	.	.	.
!	!LO:LB:g=original	!	!	!	!	!	!	!	!
=10	=10	=10	=10	=10	=10	=10	=10	=10	=10
2.ryy	4g/	coe-	.	2.r	.	.	2.r	.	.
.	4g/	-li	.	.	.	.	.	.	.
.	4g/	et	.	.	.	.	.	.	.
=11	=11	=11	=11	=11	=11	=11	=11	=11	=11
2.ryy	2.a/	ter-	.	2.r	.	.	2.r	.	.
=12	=12	=12	=12	=12	=12	=12	=12	=12	=12
2.ryy	2.b-\	-rae	.	2.r	.	.	2.r	.	.
=13	=13	=13	=13	=13	=13	=13	=13	=13	=13
2.ryy	(4cc\	et	.	2.r	.	.	2.r	.	.
.	4b-\)	.	.	.	.	.	.	.	.
.	4cc\	in	.	.	.	.	.	.	.
=14	=14	=14	=14	=14	=14	=14	=14	=14	=14
2.ryy	2dd\	Je-	.	2.r	.	.	2.r	.	.
.	4dd\	-sum	.	.	.	.	.	.	.
!	!LO:LB:g=original	!	!	!	!	!	!	!	!
=15	=15	=15	=15	=15	=15	=15	=15	=15	=15
2.ryy	2.g/	Chri-	.	2.r	.	.	2.r	.	.
=16	=16	=16	=16	=16	=16	=16	=16	=16	=16
2.ryy	2.g/	-stum	.	2.r	.	.	2.r	.	.
!!linebreak:original
=17	=17	=17	=17	=17	=17	=17	=17	=17	=17
2.ryy	4f/	Fi-	.	2.r	.	.	2.r	.	.
.	4f/	-li-	.	.	.	.	.	.	.
.	4f/	-um	.	.	.	.	.	.	.
=18	=18	=18	=18	=18	=18	=18	=18	=18	=18
2.ryy	4g/	De-	.	2.r	.	.	2.r	.	.
.	4g/	-i	.	.	.	.	.	.	.
.	8g/	u-	.	.	.	.	.	.	.
.	8g/	-ni-	.	.	.	.	.	.	.
=19	=19	=19	=19	=19	=19	=19	=19	=19	=19
2.ryy	2b-\	-ge-	.	2.r	.	.	2.r	.	.
.	4cc\	-ni-	.	.	.	.	.	.	.
!	!LO:LB:g=original	!	!	!	!	!	!	!	!
=20	=20	=20	=20	=20	=20	=20	=20	=20	=20
2.ryy	2.dd\	-tum	.	2.r	.	.	2.r	.	.
=21	=21	=21	=21	=21	=21	=21	=21	=21	=21
2.ryy	2dd\	et	.	2.r	.	.	2.r	.	.
.	4cc\	ex	.	.	.	.	.	.	.
=22	=22	=22	=22	=22	=22	=22	=22	=22	=22
2.ryy	2b-/	Pa-	.	2.r	.	.	2.r	.	.
.	4g/	-tre	.	.	.	.	.	.	.
=23	=23	=23	=23	=23	=23	=23	=23	=23	=23
2.ryy	2.f/	na-	.	2.r	.	.	2.r	.	.
=24	=24	=24	=24	=24	=24	=24	=24	=24	=24
2.ryy	2f/	-tum	.	2.r	.	.	2.r	.	.
.	4r	.	.	.	.	.	.	.	.
=25	=25	=25	=25	=25	=25	=25	=25	=25	=25
2.ryy	2f/	an-	.	2.r	.	.	2.r	.	.
.	4f/	-te	.	.	.	.	.	.	.
!	!LO:LB:g=original	!	!	!	!	!	!	!	!
=26	=26	=26	=26	=26	=26	=26	=26	=26	=26
2.ryy	4f#X/	om-	.	2.r	.	.	2.r	.	.
.	4f#/	-ni-	.	.	.	.	.	.	.
.	4f#/	-a	.	.	.	.	.	.	.
=27	=27	=27	=27	=27	=27	=27	=27	=27	=27
2.ryy	2g/	sae-	.	2.r	.	.	2.r	.	.
.	4a/	-cu-	.	.	.	.	.	.	.
=28	=28	=28	=28	=28	=28	=28	=28	=28	=28
2.ryy	2.b-\	-la	.	2.r	.	.	2.r	.	.
=29	=29	=29	=29	=29	=29	=29	=29	=29	=29
2.ryy	2cc\	an-	.	2.r	.	.	2.r	.	.
.	4cc\	-te	.	.	.	.	.	.	.
=30	=30	=30	=30	=30	=30	=30	=30	=30	=30
2.ryy	4cc\	om-	.	2.r	.	.	2.r	.	.
.	4cc\	-ni-	.	.	.	.	.	.	.
.	4cc\	-a	.	.	.	.	.	.	.
!	!LO:PB:g=original	!	!	!	!	!	!	!	!
=31	=31	=31	=31	=31	=31	=31	=31	=31	=31
2.ryy	[2cc\	sae-	.	2.r	.	.	2.r	.	.
.	8cc\L]	.	.	.	.	.	.	.	.
.	8dd\J	-cu-	.	.	.	.	.	.	.
=32	=32	=32	=32	=32	=32	=32	=32	=32	=32
2.ryy	2.b-\	-la	.	2.r	.	.	2.r	.	.
=33	=33	=33	=33	=33	=33	=33	=33	=33	=33
!	!LO:TX:a:t=39	!	!	!	!	!	!	!	!
2.ryy	2.r	.	.	2.r	.	.	2.r	.	.
!!linebreak:original
=34	=34	=34	=34	=34	=34	=34	=34	=34	=34
2.ryy	2.r	.	.	2.r	.	.	2.r	.	.
=35	=35	=35	=35	=35	=35	=35	=35	=35	=35
2.ryy	2.r	.	.	2.r	.	.	2.r	.	.
=36	=36	=36	=36	=36	=36	=36	=36	=36	=36
2.ryy	2.r	.	.	2.r	.	.	2.r	.	.
=37	=37	=37	=37	=37	=37	=37	=37	=37	=37
2.ryy	2.r	.	.	2.r	.	.	2.r	.	.
=38	=38	=38	=38	=38	=38	=38	=38	=38	=38
2.ryy	2.r	.	.	2.r	.	.	2.r	.	.
=39	=39	=39	=39	=39	=39	=39	=39	=39	=39
2.ryy	2.r	.	.	2.r	.	.	2.r	.	.
=40	=40	=40	=40	=40	=40	=40	=40	=40	=40
2.ryy	2.r	.	.	2.r	.	.	2.r	.	.
=41	=41	=41	=41	=41	=41	=41	=41	=41	=41
2.ryy	2.r	.	.	2.f/	De-	.	2.f/	De-	.
=42	=42	=42	=42	=42	=42	=42	=42	=42	=42
2.ryy	2.r	.	.	2g/	-um	.	2g/	-um	.
.	.	.	.	4g/	de	.	4g/	de	.
=43	=43	=43	=43	=43	=43	=43	=43	=43	=43
2.ryy	2.r	.	.	(2b-\	De-	.	2b-\	De-	.
.	.	.	.	4cc\)	.	.	4cc\	.	.
=44	=44	=44	=44	=44	=44	=44	=44	=44	=44
2.ryy	2.r	.	.	2.dd\	-o	.	2.dd\	-o	.
!	!	!	!	!LO:LB:g=original	!	!	!LO:LB:g=original	!	!
=45	=45	=45	=45	=45	=45	=45	=45	=45	=45
2.ryy	2.r	.	.	(2dd\	lu-	.	2dd\	lu-	.
.	.	.	.	4cc\)	.	.	4cc\	.	.
=46	=46	=46	=46	=46	=46	=46	=46	=46	=46
2.ryy	2.r	.	.	2b-\	-men	.	2b-/	-men	.
.	.	.	.	4g/	de	.	4g/	de	.
=47	=47	=47	=47	=47	=47	=47	=47	=47	=47
2.ryy	2.r	.	.	2f/	lu-	.	2f/	lu-	.
.	.	.	.	4f/	-mi-	.	4f/	-mi-	.
=48	=48	=48	=48	=48	=48	=48	=48	=48	=48
2.ryy	2.r	.	.	2f/	-ne	.	2f/	-ne	.
.	.	.	.	4r	.	.	4r	.	.
=49	=49	=49	=49	=49	=49	=49	=49	=49	=49
2.ryy	2.r	.	.	2f/	De-	.	2f/	De-	.
.	.	.	.	4f/	-um	.	4f/	-um	.
=50	=50	=50	=50	=50	=50	=50	=50	=50	=50
2.ryy	2.r	.	.	4g/	ve-	.	4g/	ve-	.
.	.	.	.	4g/	-rum	.	4g/	-rum	.
.	.	.	.	4g/	de	.	4g/	de	.
!	!	!	!	!LO:LB:g=original	!	!	!LO:LB:g=original	!	!
=51	=51	=51	=51	=51	=51	=51	=51	=51	=51
2.ryy	2.r	.	.	2a/	De-	.	2a/	De-	.
.	.	.	.	4a/	-o	.	4a/	-o	.
=52	=52	=52	=52	=52	=52	=52	=52	=52	=52
2.ryy	2.r	.	.	2b-\	ve-	.	2b-/	ve-	.
.	.	.	.	4b-\	-ro	.	4b-/	-ro	.
!!linebreak:original
=53	=53	=53	=53	=53	=53	=53	=53	=53	=53
2.ryy	2.r	.	.	(4cc\	de	.	4cc\	de	.
.	.	.	.	4b-\	.	.	4b-\	.	.
.	.	.	.	4cc\)	.	.	4cc\	.	.
=54	=54	=54	=54	=54	=54	=54	=54	=54	=54
2.ryy	2.r	.	.	2dd\	De-	.	2dd\	De-	.
.	.	.	.	4dd\	-o	.	4dd\	-o	.
=55	=55	=55	=55	=55	=55	=55	=55	=55	=55
2.ryy	2.r	.	.	2.g/	ve-	.	2.g/	ve-	.
!	!	!	!	!LO:LB:g=original	!	!	!	!	!
=56	=56	=56	=56	=56	=56	=56	=56	=56	=56
2.ryy	2.r	.	.	2g/	-ro	.	2g/	-ro	.
.	.	.	.	4r	.	.	4r	.	.
!	!	!	!	!	!	!	!LO:LB:g=original	!	!
=57	=57	=57	=57	=57	=57	=57	=57	=57	=57
2.ryy	2.r	.	.	2f/	ge-	.	2f/	ge-	.
.	.	.	.	4f/	-ni-	.	4f/	-ni-	.
=58	=58	=58	=58	=58	=58	=58	=58	=58	=58
2.ryy	2.r	.	.	2g/	-tum	.	2g/	-tum	.
.	.	.	.	4g/	non	.	4g/	non	.
=59	=59	=59	=59	=59	=59	=59	=59	=59	=59
2.ryy	2.r	.	.	(2b-\	fac-	.	2b-\	fac-	.
.	.	.	.	4cc\)	.	.	4cc\	.	.
=60	=60	=60	=60	=60	=60	=60	=60	=60	=60
2.ryy	2.r	.	.	2.dd\	-tum	.	2.dd\	-tum	.
!	!	!	!	!LO:LB:g=original	!	!	!	!	!
=61	=61	=61	=61	=61	=61	=61	=61	=61	=61
2.ryy	2.r	.	.	4dd\	con-	.	4dd\	con-	.
.	.	.	.	4dd\	-sub-	.	4dd\	-sub-	.
.	.	.	.	4cc\	-stan-	.	4cc\	-stan-	.
=62	=62	=62	=62	=62	=62	=62	=62	=62	=62
2.ryy	2.r	.	.	2b-/	-tia-	.	2b-/	-tia-	.
.	.	.	.	4g/	-lem	.	4g/	-lem	.
!	!	!	!	!	!	!	!LO:LB:g=original	!	!
=63	=63	=63	=63	=63	=63	=63	=63	=63	=63
2.ryy	2.r	.	.	2.f/	Pa-	.	2.f/	Pa-	.
=64	=64	=64	=64	=64	=64	=64	=64	=64	=64
2.ryy	2.r	.	.	2.f/	-tri	.	2.f/	-tri	.
=65	=65	=65	=65	=65	=65	=65	=65	=65	=65
2.ryy	2.r	.	.	2.f/	per	.	2.f/	per	.
=66	=66	=66	=66	=66	=66	=66	=66	=66	=66
2.ryy	2.r	.	.	2.f#X/	quem	.	2.f#X/	quem	.
!	!	!	!	!LO:LB:g=original	!	!	!	!	!
=67	=67	=67	=67	=67	=67	=67	=67	=67	=67
2.ryy	2.r	.	.	2g/	om-	.	2g/	om-	.
.	.	.	.	4a/	-ni-	.	4a/	-ni-	.
=68	=68	=68	=68	=68	=68	=68	=68	=68	=68
2.ryy	2.r	.	.	2.b-/	-a	.	2.b-\	-a	.
!	!	!	!	!	!	!	!LO:LB:g=original	!	!
=69	=69	=69	=69	=69	=69	=69	=69	=69	=69
2.ryy	2.r	.	.	[2.cc\	fa-	.	2.cc\	fa-	.
=70	=70	=70	=70	=70	=70	=70	=70	=70	=70
2.ryy	2.r	.	.	2.cc\_	.	.	2.cc\	.	.
!!pagebreak:original
=71	=71	=71	=71	=71	=71	=71	=71	=71	=71
2.ryy	2.r	.	.	2cc\]	.	.	2cc\	.	.
.	.	.	.	4dd\	-cta	.	4dd\	-cta	.
=72	=72	=72	=72	=72	=72	=72	=72	=72	=72
2.ryy	4b-/	qui	.	2b-\	sunt	.	2b-\	sunt	.
.	4b-/	pro-	.	.	.	.	.	.	.
.	4an/	-pter	.	4r	.	.	4r	.	.
!	!	!	!	!LO:LB:g=original	!	!	!	!	!
=73	=73	=73	=73	=73	=73	=73	=73	=73	=73
2.ryy	(2.a-X/	nos	.	2.f/	qui	.	4b-\	qui	.
.	.	.	.	.	.	.	4b-\	prop-	.
.	.	.	.	.	.	.	4b-\	-ter	.
!	!LO:LB:g=original	!	!	!	!	!	!	!	!
=74	=74	=74	=74	=74	=74	=74	=74	=74	=74
2.ryy	2.g/)	.	.	4en/	prop-	.	2.b-\	nos	.
.	.	.	.	4e/	-ter	.	.	.	.
.	.	.	.	4e/	nos	.	.	.	.
!	!	!	!	!	!	!	!LO:LB:g=original	!	!
=75	=75	=75	=75	=75	=75	=75	=75	=75	=75
*	*	*	*	*	*	*	*2\right	*	*
2.ryy	2g-X/	ho-	.	2e-X/	ho-	.	2cc\	ho-	.
.	4g-/	-mi-	.	(4e-/	-mi-	.	4dd\	-mi-	.
=76	=76	=76	=76	=76	=76	=76	=76	=76	=76
*	*	*	*	*	*	*	*2\left	*	*
2.ryy	2f/	-nes	.	(<4d/)	.	.	2.b-\	-nes	.
.	.	.	.	4b-\)	.	.	.	.	.
.	4b-\	et	.	4an\	-nes	.	.	.	.
=77	=77	=77	=77	=77	=77	=77	=77	=77	=77
2.ryy	2ff\	pro-	.	2.a-X/	et	.	4b-\	et	.
.	.	.	.	.	.	.	4b-\	prop-	.
.	4ff\	-pter	.	.	.	.	4b-\	-ter	.
!	!	!	!	!LO:LB:g=original	!	!	!	!	!
=78	=78	=78	=78	=78	=78	=78	=78	=78	=78
2.ryy	4een\	no-	.	4g/	prop-	.	4b-\	nos-	.
.	4ee\	-stram	.	4g/	-ter	.	4b-\	-tram	.
.	4ee\	sa-	.	4g/	sa-	.	4b-\	sa-	.
!	!LO:LB:g=original	!	!	!	!	!	!	!	!
=79	=79	=79	=79	=79	=79	=79	=79	=79	=79
2.ryy	(4cc\	-lu-	.	2.g-X/	-lu-	.	4ee-\	-lu-	.
.	4dd\	.	.	.	.	.	4dd\	.	.
.	4ee-\)	.	.	.	.	.	4cc\	.	.
!	!	!	!	!	!	!	!LO:LB:g=original	!	!
=80	=80	=80	=80	=80	=80	=80	=80	=80	=80
2.ryy	2dd\	-tem	.	2f/	-tem	.	2b-\	-tem	.
!	!	!	!LO:DY:b:t=fo	!	!	!LO:DY:b	!	!	!LO:DY:b
.	.	.	f	.	.	f	.	.	f
.	4ff\	de-	.	4b-\	de-	.	4dd\	de-	.
=81	=81	=81	=81	=81	=81	=81	=81	=81	=81
2.ryy	2.ff\^	-scen-	.	(2.a/	-scen-	.	2.ff\	-scen-	.
=82	=82	=82	=82	=82	=82	=82	=82	=82	=82
2.ryy	4ff\	-dit	.	4b-\)	-dit	.	4dd\	-dit	.
!	!	!	!LO:DY:t=po	!	!	!	!	!	!
.	4r	.	p	4r	.	.	4r	.	.
.	4b-\	de-	.	4d/	de-	.	4d/	de-	.
!	!	!	!	!LO:LB:g=original	!	!	!	!	!
=83	=83	=83	=83	=83	=83	=83	=83	=83	=83
2.ryy	2.b-\	-scen-	.	2.c/	-scen-	.	2.f/	-scen-	.
!!linebreak:original
=84	=84	=84	=84	=84	=84	=84	=84	=84	=84
2.ryy	(4a/	-dit	.	2c/	-dit	.	2f/	-dit	.
.	4cc/)	.	.	.	.	.	.	.	.
.	4f/	de	.	4c/	de	.	4f/	de	.
!	!LO:LB:g=original	!	!	!	!	!	!	!	!
=85	=85	=85	=85	=85	=85	=85	=85	=85	=85
2.ryy	[2.f/	coe-	.	[2.B-/	coe-	.	[2.d/	coe-	.
!	!	!	!	!	!	!	!LO:PB:g=original	!	!
=86	=86	=86	=86	=86	=86	=86	=86	=86	=86
2.ryy	2.f/]	.	.	2.B-/]	.	.	2.d/]	.	.
=87	=87	=87	=87	=87	=87	=87	=87	=87	=87
2.ryy	2.f/;	-lis	.	2.B-/;	-lis	.	2.d/;	-lis	.
=88||	=88||	=88||	=88||	=88||	=88||	=88||	=88||	=88||	=88||
*k[b-e-a-]	*	*	*	*k[b-e-a-]	*	*	*k[b-e-a-]	*	*
*M4/4	*	*	*	*M4/4	*	*	*M4/4	*	*
*met(c)	*	*	*	*met(c)	*	*	*met(c)	*	*
!	!LO:TX:a:t=Solo Sopran (Tacet.)	!	!	!LO:TX:a:t=Sopran Solo Tacet	!	!	!	!	!
!	!LO:TX:rj:a:B:t=Andante	!	!	!LO:TX:a:B:t=Andante	!	!	!LO:TX:a:t=Sopran Solo	!	!
!	!LO:TX:a:t=32.	!	!	!LO:TX:b:t=Pauz 32.	!	!	!LO:TX:rj:a:B:t=Andante	!	!LO:DY:b
1ryy	1r	.	.	1r	.	.	2b-\	Et	p
.	.	.	.	.	.	.	4ee-\	in	.
.	.	.	.	.	.	.	4dd\	car-	.
=89	=89	=89	=89	=89	=89	=89	=89	=89	=89
1ryy	1r	.	.	1r	.	.	4.ee-\	-na-	.
.	.	.	.	.	.	.	(16dd\LL	-tus	.
.	.	.	.	.	.	.	16cc\JJ)	.	.
.	.	.	.	.	.	.	4b-\	est	.
.	.	.	.	.	.	.	4cc\	de	.
!	!	!	!	!	!	!	!LO:LB:g=original	!	!
=90	=90	=90	=90	=90	=90	=90	=90	=90	=90
1ryy	1r	.	.	1r	.	.	2f/	Spi-	.
.	.	.	.	.	.	.	4f/	-ri-	.
.	.	.	.	.	.	.	4b-\	-tu	.
=91	=91	=91	=91	=91	=91	=91	=91	=91	=91
1ryy	1r	.	.	1r	.	.	2a-/	San-	.
.	.	.	.	.	.	.	4g/	-cto	.
.	.	.	.	.	.	.	(8g/L	ex	.
.	.	.	.	.	.	.	8a-/J)	.	.
=92	=92	=92	=92	=92	=92	=92	=92	=92	=92
1ryy	1r	.	.	1r	.	.	(4b-\	Ma-	.
.	.	.	.	.	.	.	2gg\)	.	.
.	.	.	.	.	.	.	8ff\	-ri-	.
.	.	.	.	.	.	.	8dd\	-a	.
!	!	!	!	!	!	!	!LO:LB:g=original	!	!
=93	=93	=93	=93	=93	=93	=93	=93	=93	=93
1ryy	1r	.	.	1r	.	.	4.ff\	vir-	.
.	.	.	.	.	.	.	8ee-\	-gi-	.
.	.	.	.	.	.	.	4ee-\	-ne	.
.	.	.	.	.	.	.	4ee-\	et	.
=94	=94	=94	=94	=94	=94	=94	=94	=94	=94
1ryy	1r	.	.	1r	.	.	4.dd\	Ho-	.
.	.	.	.	.	.	.	8g/	-mo	.
.	.	.	.	.	.	.	4b-/	fac-	.
.	.	.	.	.	.	.	4a-/	-tus	.
=95	=95	=95	=95	=95	=95	=95	=95	=95	=95
1ryy	1r	.	.	1r	.	.	2g/	est	.
.	.	.	.	.	.	.	2r	.	.
!!linebreak:original
=96	=96	=96	=96	=96	=96	=96	=96	=96	=96
1ryy	1r	.	.	1r	.	.	([1dd\	Cru-	.
!	!	!	!	!	!	!	!LO:LB:g=original	!	!
=97	=97	=97	=97	=97	=97	=97	=97	=97	=97
!	!	!	!	!	!	!	!LO:TX:t=P:problem:ołówkiem dopisane dźwięki i tekst	!	!
1ryy	1r	.	.	1r	.	.	4.dd\]	.	.
.	.	.	.	.	.	.	8b-\	.	.
.	.	.	.	.	.	.	4g/)	.	.
.	.	.	.	.	.	.	4a-/	ci-	.
=98	=98	=98	=98	=98	=98	=98	=98	=98	=98
1ryy	1r	.	.	1r	.	.	(2.b-\	-fi-	.
.	.	.	.	.	.	.	4a-/)	.	.
=99	=99	=99	=99	=99	=99	=99	=99	=99	=99
1ryy	1r	.	.	1r	.	.	2.g/	-xus	.
.	.	.	.	.	.	.	4r	.	.
=100	=100	=100	=100	=100	=100	=100	=100	=100	=100
1ryy	1r	.	.	1r	.	.	2dd\	e-	.
.	.	.	.	.	.	.	8qqff/	.	.
.	.	.	.	.	.	.	4ee-\	.	.
.	.	.	.	.	.	.	4dd\	-ti-	.
!	!	!	!	!	!	!	!LO:LB:g=original	!	!
=101	=101	=101	=101	=101	=101	=101	=101	=101	=101
1ryy	1r	.	.	1r	.	.	(4dd\	-am	.
.	.	.	.	.	.	.	2gg\)	.	.
.	.	.	.	.	.	.	4g/	pro	.
=102	=102	=102	=102	=102	=102	=102	=102	=102	=102
1ryy	1r	.	.	1r	.	.	((2.b-/	no-	.
.	.	.	.	.	.	.	8b-/L)	.	.
.	.	.	.	.	.	.	8an/J)	.	.
=103	=103	=103	=103	=103	=103	=103	=103	=103	=103
1ryy	1r	.	.	1r	.	.	2.g/	-bis	.
.	.	.	.	.	.	.	4r	.	.
=104	=104	=104	=104	=104	=104	=104	=104	=104	=104
!	!	!	!	!	!	!	!LO:TX:b:t=4	!	!
!	!	!	!	!	!	!	!LO:TX:a:t=4	!	!
1ryy	1r	.	.	1r	.	.	1r	.	.
=105	=105	=105	=105	=105	=105	=105	=105	=105	=105
1ryy	1r	.	.	1r	.	.	1r	.	.
=106	=106	=106	=106	=106	=106	=106	=106	=106	=106
1ryy	1r	.	.	1r	.	.	1r	.	.
=107	=107	=107	=107	=107	=107	=107	=107	=107	=107
1ryy	1r	.	.	1r	.	.	1r	.	.
=108	=108	=108	=108	=108	=108	=108	=108	=108	=108
1ryy	1r	.	.	1r	.	.	1ryy	.	.
=109	=109	=109	=109	=109	=109	=109	=109	=109	=109
1ryy	1r	.	.	1r	.	.	1ryy	.	.
=110	=110	=110	=110	=110	=110	=110	=110	=110	=110
1ryy	1r	.	.	1r	.	.	(2b-\	Pas-	.
.	.	.	.	.	.	.	4ee-\)	.	.
.	.	.	.	.	.	.	4dd\	-sus	.
!	!	!	!	!	!	!	!LO:LB:g=original	!	!
=111	=111	=111	=111	=111	=111	=111	=111	=111	=111
1ryy	1r	.	.	1r	.	.	(4.ee-\	pas-	.
.	.	.	.	.	.	.	16dd\LL	.	.
.	.	.	.	.	.	.	16cc\JJ	.	.
.	.	.	.	.	.	.	4b-\)	.	.
.	.	.	.	.	.	.	4cc\	-sus	.
!!pagebreak:original
=112	=112	=112	=112	=112	=112	=112	=112	=112	=112
1ryy	1r	.	.	1r	.	.	4.f/	et	.
.	.	.	.	.	.	.	8f/	se-	.
.	.	.	.	.	.	.	4f/	-pul-	.
.	.	.	.	.	.	.	(8cc\L	-tus	.
.	.	.	.	.	.	.	8b-\J)	.	.
=113	=113	=113	=113	=113	=113	=113	=113	=113	=113
1ryy	1r	.	.	1r	.	.	(2a-/	est	.
.	.	.	.	.	.	.	4g/)	.	.
.	.	.	.	.	.	.	4r	.	.
=114	=114	=114	=114	=114	=114	=114	=114	=114	=114
!	!	!	!	!	!	!	!	!	!LO:HP:b
1ryy	1r	.	.	1r	.	.	(4b-\	Pas-	<
.	.	.	.	.	.	.	2gg\)	.	.
.	.	.	.	.	.	.	.	.	[
.	.	.	.	.	.	.	4gg\	-sus	.
!	!	!	!	!	!	!	!LO:LB:g=original	!	!
=115	=115	=115	=115	=115	=115	=115	=115	=115	=115
1ryy	1r	.	.	1r	.	.	(4gg\	pas-	.
.	.	.	.	.	.	.	8ff\L	.	.
.	.	.	.	.	.	.	8ee-\J)	.	.
.	.	.	.	.	.	.	(4ee-\	-sus	.
.	.	.	.	.	.	.	8dd\L	.	.
.	.	.	.	.	.	.	8cc\J)	.	.
=116	=116	=116	=116	=116	=116	=116	=116	=116	=116
1ryy	1r	.	.	1r	.	.	4b-/	et	.
.	.	.	.	.	.	.	4e-/	se-	.
.	.	.	.	.	.	.	4.g/	-pul-	.
.	.	.	.	.	.	.	8f/	-tus	.
=117	=117	=117	=117	=117	=117	=117	=117	=117	=117
1ryy	1r	.	.	1r	.	.	2.e-/	est	.
.	.	.	.	.	.	.	4r	.	.
=118	=118	=118	=118	=118	=118	=118	=118	=118	=118
!	!	!	!	!	!	!	!LO:TX:a:t=3	!	!
1ryy	1r	.	.	1r	.	.	1r	.	.
=119	=119	=119	=119	=119	=119	=119	=119	=119	=119
1ryy	1r	.	.	1r	.	.	1r	.	.
=120	=120	=120	=120	=120	=120	=120	=120	=120	=120
1ryy	1r	.	.	1r	.	.	1r	.	.
=121	=121	=121	=121	=121	=121	=121	=121	=121	=121
1ryy	1r	.	.	1r	.	.	1r;	.	.
!!linebreak:original
*	*	*	*	*	*	*	*k[b-e-an]	*	*
!	!LO:LB:g=original	!	!	!LO:LB:g=original	!	!	!LO:LB:g=original	!	!
=122||	=122||	=122||	=122||	=122||	=122||	=122||	=122||	=122||	=122||
*k[b-e-]	*k[b-e-an]	*	*	*k[b-e-]	*	*	*k[b-e-an]	*	*
*M3/4	*M3/4	*	*	*M3/4	*	*	*M3/4	*	*
!	!	!	!LO:DY:rj:b:t=fo	!LO:TX:a:B:t=Allo moderato.	!	!	!LO:TX:rj:a:t=Allegro moderato.	!	!LO:DY:rj:b:t=fo
2.ryy	2.f/	Et	f	2.f/	Et	f	2.f/	Et	f
=123	=123	=123	=123	=123	=123	=123	=123	=123	=123
2.ryy	2g/	res-	.	2g/	res-	.	2g/	res-	.
.	4g/	-sur-	.	4g/	-sur-	.	4g/	-sur-	.
=124	=124	=124	=124	=124	=124	=124	=124	=124	=124
2.ryy	(2b-\	-re-	.	(2b-\	-re-	.	(2b-\	-re-	.
.	4cc\)	.	.	4cc\)	.	.	4cc\)	.	.
=125	=125	=125	=125	=125	=125	=125	=125	=125	=125
2.ryy	2.dd\	-xit	.	2.dd\	-xit	.	2.dd\	-xit	.
!	!LO:LB:g=original	!	!	!	!	!	!	!	!
=126	=126	=126	=126	=126	=126	=126	=126	=126	=126
2.ryy	(2dd\	ter-	.	(2dd\	ter-	.	(2dd\	ter-	.
.	4cc\)	.	.	4cc\)	.	.	4cc\)	.	.
!	!	!	!	!LO:LB:g=original	!	!	!LO:LB:g=original	!	!
=127	=127	=127	=127	=127	=127	=127	=127	=127	=127
2.ryy	2b-\	-ti-	.	2b-\	-ti-	.	2b-/	-ti-	.
.	4g/	-a	.	4g/	-a	.	4g/	-a	.
=128	=128	=128	=128	=128	=128	=128	=128	=128	=128
2.ryy	2.f/	di-	.	2.f/	di-	.	2.f/	di-	.
=129	=129	=129	=129	=129	=129	=129	=129	=129	=129
2.ryy	2.f/	-e	.	2.f/	-e	.	2.f/	-e	.
=130	=130	=130	=130	=130	=130	=130	=130	=130	=130
2.ryy	2.f/	se-	.	2.f/	se-	.	2.f/	se-	.
=131	=131	=131	=131	=131	=131	=131	=131	=131	=131
2.ryy	4g/	-cun-	.	4g/	-cun-	.	4g/	-cun-	.
.	4g/	-dum	.	4g/	-dum	.	4g/	-dum	.
.	4g/	scrip-	.	4g/	scrip-	.	4g/	scrip-	.
!	!	!	!	!	!	!	!LO:LB:g=original	!	!
=132	=132	=132	=132	=132	=132	=132	=132	=132	=132
2.ryy	2.a/	-tu-	.	2.a/	-tu-	.	2.a/	-tu-	.
!	!LO:LB:g=original	!	!	!LO:LB:g=original	!	!	!	!	!
=133	=133	=133	=133	=133	=133	=133	=133	=133	=133
2.ryy	2.b-/	-ras	.	2.b-\	-ras	.	2.b-\	-ras	.
=134	=134	=134	=134	=134	=134	=134	=134	=134	=134
2.ryy	(4cc\	et	.	(4cc\	et	.	(4cc\	et	.
.	4b-\)	.	.	4b-\)	.	.	4b-\)	.	.
.	4cc\	as-	.	4cc\	as-	.	4cc\	as-	.
=135	=135	=135	=135	=135	=135	=135	=135	=135	=135
2.ryy	4dd\	-cen-	.	4dd\	-cen-	.	4dd\	-cen-	.
.	4dd\	-dit	.	4dd\	-dit	.	4dd\	-dit	.
.	4dd\	in	.	4dd\	in	.	4dd\	in	.
=136	=136	=136	=136	=136	=136	=136	=136	=136	=136
2.ryy	2.g/	coe-	.	2.g/	coe-	.	2.g/	coe-	.
!	!	!	!	!	!	!	!LO:LB:g=original	!	!
=137	=137	=137	=137	=137	=137	=137	=137	=137	=137
2.ryy	2g/	-lum	.	2g/	-lum	.	2g/	-lum	.
.	4r	.	.	4r	.	.	4r	.	.
=138	=138	=138	=138	=138	=138	=138	=138	=138	=138
2.ryy	4f/	se-	.	4f/	se-	.	4f/	se-	.
.	4f/	-det	.	4f/	-det	.	4f/	-det	.
.	4f/	ad	.	4f/	ad	.	4f/	ad	.
!!linebreak:original
!	!LO:LB:g=original	!	!	!LO:LB:g=original	!	!	!	!	!
=139	=139	=139	=139	=139	=139	=139	=139	=139	=139
2.ryy	4g/	dex-	.	4g/	dex-	.	4g/	dex-	.
.	4g/	-te-	.	4g/	-te-	.	4g/	-te-	.
.	4g/	-ram	.	4g/	-ram	.	4g/	-ram	.
=140	=140	=140	=140	=140	=140	=140	=140	=140	=140
2.ryy	(2b-\	Pa-	.	(2b-\	Pa-	.	(2b-\	Pa-	.
.	4cc\)	.	.	4cc\)	.	.	4cc\)	.	.
=141	=141	=141	=141	=141	=141	=141	=141	=141	=141
2.ryy	2.dd\	-tris.	.	2.dd\	-tris.	.	2.dd\	-tris.	.
!	!	!	!	!	!	!	!LO:LB:g=original	!	!
=142	=142	=142	=142	=142	=142	=142	=142	=142	=142
2.ryy	4dd\	et	.	4dd\	et	.	4dd\	et	.
.	4dd\	i-	.	4dd\	i-	.	4dd\	i-	.
.	4cc\	-te-	.	4cc\	-te-	.	4cc\	-te-	.
=143	=143	=143	=143	=143	=143	=143	=143	=143	=143
2.ryy	2b-/	-rum	.	2b-\	-rum	.	2b-/	-rum	.
.	4g/	ven-	.	4g/	ven-	.	4g/	ven-	.
!	!LO:LB:g=original	!	!	!LO:LB:g=original	!	!	!	!	!
=144	=144	=144	=144	=144	=144	=144	=144	=144	=144
2.ryy	2f/	-tu-	.	2f/	-tu-	.	2f/	-tu-	.
.	4f/	-rus	.	4f/	-rus	.	4f/	-rus	.
=145	=145	=145	=145	=145	=145	=145	=145	=145	=145
2.ryy	2.f/	est	.	2.f/	est	.	2.f/	est	.
!	!	!	!	!	!	!	!LO:PB:g=original	!	!
=146	=146	=146	=146	=146	=146	=146	=146	=146	=146
2.ryy	4f/	et	.	4f/	et	.	4f/	et	.
.	4f/	i-	.	4f/	i-	.	4f/	i-	.
.	4f/	-te-	.	4f/	-te-	.	4f/	-te-	.
=147	=147	=147	=147	=147	=147	=147	=147	=147	=147
2.ryy	2f#X/	-rum	.	2f#X/	-rum	.	2f#X/	-rum	.
.	4f#/	ven-	.	4f#/	ven-	.	4f#/	ven-	.
=148	=148	=148	=148	=148	=148	=148	=148	=148	=148
2.ryy	2g/	-tu-	.	2g/	-tu-	.	2g/	-tu-	.
.	4a/	-rus	.	4a/	-rus	.	4a/	-rus	.
!	!	!	!	!LO:LB:g=original	!	!	!	!	!
=149	=149	=149	=149	=149	=149	=149	=149	=149	=149
2.ryy	2b-/	est	.	2b-\	est	.	2b-\	est	.
!	!	!	!	!	!	!LO:DY:b	!	!	!
.	.	.	.	.	.	f	.	.	.
.	4b-/	cum	.	4b-\	cum	.	4b-\	cum	.
!	!LO:LB:g=original	!	!	!	!	!	!	!	!
=150	=150	=150	=150	=150	=150	=150	=150	=150	=150
2.ryy	4cc\	glo-	.	4cc\	glo-	.	4cc\	glo-	.
.	4cc\	-ri-	.	4cc\	-ri-	.	4cc\	-ri-	.
.	4cc\	-a	.	4cc\	-a	.	4cc\	-a	.
!	!	!	!	!	!	!	!LO:LB:g=original	!	!
=151	=151	=151	=151	=151	=151	=151	=151	=151	=151
2.ryy	2cc\	ju-	.	2cc\	ju-	.	2cc\	ju-	.
.	4cc\	-di-	.	4cc\	-di-	.	4cc\	-di-	.
=152	=152	=152	=152	=152	=152	=152	=152	=152	=152
2.ryy	(2cc\	-ca-	.	(2cc\	-ca-	.	(2cc\	-ca-	.
.	4dd\)	.	.	4dd\)	.	.	4dd\)	.	.
=153	=153	=153	=153	=153	=153	=153	=153	=153	=153
2.ryy	2b-\	-re	.	2b-\	-re	.	2b-\	-re	.
.	4r	.	.	4r	.	.	4r	.	.
!	!	!	!	!LO:LB:g=original	!	!	!	!	!
=154	=154	=154	=154	=154	=154	=154	=154	=154	=154
2.ryy	4dd\	vi-	.	4g/	vi-	.	2.b-\	vi-	.
.	4dd\	-vos	.	4g/	-vos	.	.	.	.
.	4dd\	et	.	4g/	et	.	.	.	.
!!pagebreak:original
!	!LO:LB:g=original	!	!	!	!	!	!	!	!
=155	=155	=155	=155	=155	=155	=155	=155	=155	=155
2.ryy	2cc#X\	mor-	.	2en/	mor-	.	2a/	-vos	.
.	4ccn\	-tu-	.	4f#X/	-tu-	.	4dd\	et	.
!	!	!	!	!	!	!	!LO:LB:g=original	!	!
=156	=156	=156	=156	=156	=156	=156	=156	=156	=156
2.ryy	2.b-/	-os	.	2.d/	-os	.	2g/	mor-	.
.	.	.	.	.	.	.	4g/	-tu-	.
=157	=157	=157	=157	=157	=157	=157	=157	=157	=157
2.ryy	2b-\	cu-	.	2e-/	cu-	.	4g/	-os	.
.	.	.	.	.	.	.	4g/	cu-	.
.	4b-\	-jus	.	4e-/	-jus	.	4g/	-ius	.
=158	=158	=158	=158	=158	=158	=158	=158	=158	=158
2.ryy	4cc\	re-	.	4e-/	re-	.	4g/	reg-	.
.	4dd\	-gni	.	4e-/	-gni	.	4g/	-ni	.
.	4ee-\	non	.	4e-/	non	.	4a/	non	.
!	!	!	!	!LO:LB:g=original	!	!	!	!	!
=159	=159	=159	=159	=159	=159	=159	=159	=159	=159
2.ryy	2dd\	e-	.	2d/	e-	.	2b-/	e-	.
.	4cc\	-rit	.	4f#X/	-rit	.	4a/	-rit	.
!	!LO:LB:g=original	!	!	!	!	!	!	!	!
=160	=160	=160	=160	=160	=160	=160	=160	=160	=160
2.ryy	2.b-\	fi-	.	2.g/	fi-	.	2.g/	fi-	.
!	!	!	!	!	!	!	!LO:LB:g=original	!	!
=161	=161	=161	=161	=161	=161	=161	=161	=161	=161
2.ryy	4b-\	-nis	.	4g/	-nis	.	4g/	-nis	.
.	4b-\	qui	.	4r	.	.	4r	.	.
.	4cc\	cum	.	4r	.	.	4r	.	.
=162	=162	=162	=162	=162	=162	=162	=162	=162	=162
2.ryy	[2.dd\	Pa-	.	4r	.	.	4r	.	.
!	!	!	!	!	!	!LO:DY:a	!	!	!
.	.	.	.	.	.	f	.	.	.
.	.	.	.	4g/	qui	.	4b-\	qui	.
.	.	.	.	4a/	cum	.	4cc\	cum	.
=163	=163	=163	=163	=163	=163	=163	=163	=163	=163
2.ryy	4dd\]	.	.	4b-/	Pa-	.	4dd\	Pa-	.
.	4ee-\	-tre	.	4a/	-tre	.	4cc\	-tre	.
.	4een\	et	.	4g/	et	.	4b-\	et	.
!	!	!	!	!LO:LB:g=original	!	!	!	!	!
=164	=164	=164	=164	=164	=164	=164	=164	=164	=164
2.ryy	2dd\	fi-	.	2f#X/	fi-	.	2a/	fi-	.
.	4dd\	-li-	.	4g/	-li-	.	(8cc\L	-li-	.
.	.	.	.	.	.	.	8b-\J)	.	.
!	!LO:PB:g=original	!	!	!	!	!	!	!	!
=165	=165	=165	=165	=165	=165	=165	=165	=165	=165
2.ryy	2dd\	-a	.	2f#X/	-a	.	2a/	-a	.
.	4r	.	.	4r	.	.	4r	.	.
!	!	!	!	!	!	!	!LO:LB:g=original	!	!
=166	=166	=166	=166	=166	=166	=166	=166	=166	=166
2.ryy	2dd\	si-	.	2fn/	si-	.	2a/	si-	.
.	4dd\	-mul	.	4f/	-mul	.	4a/	-mul	.
=167	=167	=167	=167	=167	=167	=167	=167	=167	=167
2.ryy	2ee-\	a-	.	2f/	a-	.	2a/	a-	.
.	4ee-\	-do-	.	4f/	-do-	.	4a/	-do-	.
=168	=168	=168	=168	=168	=168	=168	=168	=168	=168
2.ryy	(2dd\	-ra-	.	2.f/	-ra-	.	(2b-\	-ra-	.
.	4ff\)	.	.	.	.	.	4cc\)	.	.
!!linebreak:original
=169	=169	=169	=169	=169	=169	=169	=169	=169	=169
2.ryy	2b-\	-tur	.	(<4f/	-tur	.	2dd\	-tur	.
.	.	.	.	4b-\)	.	.	.	.	.
.	4ff\	et	.	4a-X\	et	.	4dd\	et	.
!	!	!	!	!LO:LB:g=original	!	!	!	!	!
=170	=170	=170	=170	=170	=170	=170	=170	=170	=170
2.ryy	2ee-\	con-	.	2g/	con-	.	2ee-\	con-	.
.	4bn\	-glo-	.	4g/	-glo-	.	4dd\	-glo-	.
!	!LO:LB:g=original	!	!	!	!	!	!LO:LB:g=original	!	!
=171	=171	=171	=171	=171	=171	=171	=171	=171	=171
2.ryy	2cc\	-ri-	.	2g/	-ri-	.	2cc\	-ri-	.
.	4cc\	-fi-	.	4g/	-fi-	.	4b-\	-fi-	.
=172	=172	=172	=172	=172	=172	=172	=172	=172	=172
2.ryy	2cc\	-ca-	.	(>2f/	-ca-	.	(4b-/	-ca-	.
.	.	.	.	.	.	.	4a/	.	.
.	4b-\	.	.	4en/)	.	.	4g/)	.	.
=173	=173	=173	=173	=173	=173	=173	=173	=173	=173
2.ryy	4a/	-tur	.	2f/	-tur	.	2f/	-tur	.
.	4b-/	.	.	.	.	.	.	.	.
.	4cc/	con-	.	4e-X/	con-	.	4f/	con-	.
=174	=174	=174	=174	=174	=174	=174	=174	=174	=174
2.ryy	4.dd\	-fi-	.	4.d/	-fi-	.	4.f/	-fi-	.
.	8dd\	-te-	.	8f/	-te-	.	8f/	-te-	.
.	4dd\	-or	.	4f/	-or	.	4f/	-or	.
!	!	!	!	!LO:LB:g=original	!	!	!	!	!
=175	=175	=175	=175	=175	=175	=175	=175	=175	=175
2.ryy	4b-\	u-	.	4e-/	u-	.	4g/	u-	.
.	4b-\	-num	.	4e-/	-num	.	4g/	-num	.
.	4b-\	bap-	.	4e-/	bap-	.	4g/	bap-	.
!	!LO:LB:g=original	!	!	!	!	!	!LO:LB:g=original	!	!
=176	=176	=176	=176	=176	=176	=176	=176	=176	=176
2.ryy	2dd\	-tis-	.	2f/	-tis-	.	2b-\	-tis-	.
.	4ee-\	-ma	.	4f/	-ma	.	4cc\	-ma	.
=177	=177	=177	=177	=177	=177	=177	=177	=177	=177
2.ryy	2dd\	in	.	2f/	in	.	2dd\	in	.
.	4dd\	re-	.	4f/	re-	.	4dd\	re-	.
=178	=178	=178	=178	=178	=178	=178	=178	=178	=178
2.ryy	2dd\	-mis-	.	2f#X/	-mis-	.	2dd\	-mis-	.
.	4dd\	-ssi-	.	4f#/	-si-	.	4cc\	-si-	.
=179	=179	=179	=179	=179	=179	=179	=179	=179	=179
2.ryy	4.dd\	-o-	.	4.g/	-o-	.	4.b-/	-o-	.
.	8dd\	-nem	.	8g/	-nem	.	8b-/	-nem	.
.	8ee-\	pec-	.	8g/	pec-	.	8g/	pec-	.
.	8ee-\	-ca-	.	8g/	-ca-	.	8g/	-ca-	.
!	!	!	!	!LO:PB:g=original	!	!	!	!	!
=180	=180	=180	=180	=180	=180	=180	=180	=180	=180
2.ryy	2cc\	to-	.	(2e-/	-to-	.	2.f/	-to-	.
.	4dd\	.	.	4d/)	.	.	.	.	.
!	!LO:LB:g=original	!	!	!	!	!	!LO:LB:g=original	!	!
=181	=181	=181	=181	=181	=181	=181	=181	=181	=181
2.ryy	2.cc/ 2.a/	-rum	.	2.c/	-rum	.	2.f/	-rum	.
=182	=182	=182	=182	=182	=182	=182	=182	=182	=182
2.ryy	2dd\	et	.	2d/	et	.	2f/	et	.
.	4dd\	ex	.	4d/	ex-	.	4f/	ex-	.
=183	=183	=183	=183	=183	=183	=183	=183	=183	=183
2.ryy	2cc\	-pec-	.	2d/	-pec-	.	2f#X/	-pec-	.
.	4cc\	-to	.	4d/	-to	.	4f#/	-to	.
!!linebreak:original
=184	=184	=184	=184	=184	=184	=184	=184	=184	=184
2.ryy	4.b-/	re-	.	4.d/	re-	.	4.g/	re-	.
.	8b-\	-sur-	.	8d/	-sur-	.	8g/	-sur-	.
.	8dd\	-re-	.	8d/	-re-	.	8a/	-rec-	.
.	8dd\	-ti-	.	8d/	-ti-	.	8a/	-ti-	.
!	!	!	!	!LO:LB:g=original	!	!	!LO:LB:g=original	!	!
=185	=185	=185	=185	=185	=185	=185	=185	=185	=185
2.ryy	2dd\	-o-	.	2d/	-o-	.	2b-\	-o-	.
.	4dd\	-nem	.	4b-\	-nem	.	4b-\	-nem.	.
!	!LO:LB:g=original	!	!	!	!	!	!	!	!
=186	=186	=186	=186	=186	=186	=186	=186	=186	=186
2.ryy	2.gg\	mor-	.	2.b-\	mor-	.	2.cc\	mor-	.
=187	=187	=187	=187	=187	=187	=187	=187	=187	=187
2.ryy	2ff\	-tu-	.	2.b-\	-tu-	.	2.cc\	-tu-	.
.	4een\	-o-	.	.	.	.	.	.	.
=188	=188	=188	=188	=188	=188	=188	=188	=188	=188
2.ryy	2.ee-X\	.	.	(2b-\	-o-	.	([2cc\	-o-	.
.	.	.	.	4a/)	.	.	8cc\L]	.	.
.	.	.	.	.	.	.	8dd\J)	.	.
=189	=189	=189	=189	=189	=189	=189	=189	=189	=189
2.ryy	2dd\	-rum	.	2b-\	-rum	.	2b-\	-rum	.
.	4ff\	et	.	4a-X/	et	.	4b-\	et	.
!	!	!	!	!LO:LB:g=original	!	!	!LO:LB:g=original	!	!
=190	=190	=190	=190	=190	=190	=190	=190	=190	=190
2.ryy	(2een\	vi-	.	2g/	vi-	.	2.b-\	vi-	.
.	4ee-X\)	.	.	4g-X/	.	.	.	.	.
!	!LO:LB:g=original	!	!	!	!	!	!	!	!
=191	=191	=191	=191	=191	=191	=191	=191	=191	=191
2.ryy	2dd\	-tam	.	2f/	-tam	.	2b-\	-tam	.
.	4dd\	ven-	.	4f/	ven-	.	4b-\	ven-	.
=192	=192	=192	=192	=192	=192	=192	=192	=192	=192
2.ryy	(<2cc#X\	-tu-	.	(>2en/	-tu-	.	2.b-\	-tu-	.
.	4ccn\)	.	.	4e-X/)	.	.	.	.	.
=193	=193	=193	=193	=193	=193	=193	=193	=193	=193
2.ryy	2.b-\	-ri	.	2.d/	-ri	.	2.b-\	-ri	.
=194	=194	=194	=194	=194	=194	=194	=194	=194	=194
2.ryy	4f/	sae-	.	4d/	sae-	.	4b-\	sae-	.
.	4f/	-cu-	.	4d/	-cu-	.	4b-\	-cu-	.
.	4f/	-li	.	4d/	-li	.	4b-\	-li	.
!	!	!	!	!LO:LB:g=original	!	!	!	!	!
=195	=195	=195	=195	=195	=195	=195	=195	=195	=195
2.ryy	(>2f/	A-	.	(>2d/	A-	.	2.b-\	A-	.
.	4g-X/	.	.	4e-/	.	.	.	.	.
!	!	!	!	!	!	!	!LO:LB:g=original	!	!
=196	=196	=196	=196	=196	=196	=196	=196	=196	=196
2.ryy	2f/	.	.	(>2d/)	.	.	2.b-\	.	.
.	4e-/)	.	.	4c/	.	.	.	.	.
=197	=197	=197	=197	=197	=197	=197	=197	=197	=197
2.ryy	2.f/;	-men	.	2.d/)	-men	.	2.b-\;	-men!	.
==	==	==	==	==	==	==	==	==	==
*-	*-	*-	*-	*-	*-	*-	*-	*-	*-
!!!system-decoration: [(s1,s2,s3,s4)]
!!!RDF**kern: > = above
!!!RDF**kern: < = below
!!!EED: Leszek Kubiak
!!!EST: 2021-01-21
!!!ENC: Tomasz Grochalski
!!!END: 2021-01-10
